img/zoom.svg

<?xml version="1.0" encoding="UTF-8" standalone="no"?>
<svg width="70px" height="70px" viewBox="0 0 70 70" version="1.1" xmlns="http://www.w3.org/2000/svg" xmlns:xlink="http://www.w3.org/1999/xlink" xmlns:sketch="http://www.bohemiancoding.com/sketch/ns">
    <!-- Generator: Sketch 3.2.2 (9983) - http://www.bohemiancoding.com/sketch -->
    <title>zoom</title>
    <desc>Created with Sketch.</desc>
    <defs></defs>
    <g id="Page-1" stroke="none" stroke-width="1" fill="none" fill-rule="evenodd" sketch:type="MSPage">
        <g id="Desktop" sketch:type="MSArtboardGroup" transform="translate(-1209.000000, -731.000000)" fill="#393D47">
            <path d="M1252.75011,730.999816 C1238.24776,730.999816 1226.50005,742.747532 1226.50005,757.249885 C1226.50005,762.435084 1227.95838,767.215189 1230.55098,771.266126 L1210.70139,791.034696 C1208.43287,793.303221 1208.43287,797.030082 1210.70139,799.298607 C1211.83566,800.432869 1213.29399,801 1214.83335,801 C1216.29169,801 1217.83104,800.432869 1218.9653,799.298607 L1238.73387,779.449018 C1242.78481,782.041617 1247.56492,783.499954 1252.75011,783.499954 C1267.25247,783.499954 1279.00018,771.752238 1279.00018,757.249885 C1279.00018,742.747532 1267.25247,730.999816 1252.75011,730.999816 L1252.75011,730.999816 Z M1267.33349,761.624897 L1257.12513,761.624897 L1257.12513,771.833257 L1248.3751,771.833257 L1248.3751,761.624897 L1238.16674,761.624897 L1238.16674,752.874874 L1248.3751,752.874874 L1248.3751,742.666514 L1257.12513,742.666514 L1257.12513,752.874874 L1267.33349,752.874874 L1267.33349,761.624897 Z" id="zoom" sketch:type="MSShapeGroup"></path>
        </g>
    </g>
</svg>

<svg width="70" height="70" viewBox="0 0 70 70" xmlns="http://www.w3.org/2000/svg"><title>zoom</title><desc>Created with Sketch.</desc><path d="M43.75 0C29.248 0 17.5 11.748 17.5 26.25c0 5.185 1.458 9.965 4.05 14.016L1.7 60.036c-2.267 2.267-2.267 5.994 0 8.263C2.837 69.432 4.295 70 5.834 70c1.46 0 2.998-.567 4.132-1.7l19.77-19.85c4.05 2.592 8.83 4.05 14.015 4.05C58.252 52.5 70 40.752 70 26.25S58.252 0 43.75 0zm1223.583 761.625h-10.208v10.208h-8.75v-10.208h-10.208v-8.75h10.208v-10.208h8.75v10.208h10.208v8.75z" fill="#393D47"/></svg>
